X:1
T:Henry Alline, published 1786 (Hymn 65, Book 4)   88. 88. (L. M.)
T:G Major Oliver Holden, 1796
T:Confidence No copyright. Treble-Tenor-Bass from The Union Harmony , 1796; Counter by B. C. Johnston, 2015.
%%score [ 1 2 3 4 ]
L:1/8
M:4/4
K:G
V:1 treble nm="Treble" snm="Tr."
V:2 treble nm="Counter" snm="C."
V:3 treble-8 nm="Tenor" snm="T."
V:4 bass nm="Bass" snm="B."
V:1
 G4 B2 G2 | B2 A2 G2 F2 | G6 F2 | G2 G2 G2 A2 | D4 F4 | G6 F2 | G2 G2 c2 c2 | c2 c2 B2 A2 | %8
w: 1.~Now can my|soul in God re-|joice, I|feel my Sav- ior's|cheer- ing|voice; My|heart a- wakes to|sing His praise, And|
 B3 c d2 G2 | A4 A4 | A8 |: B4 G2 B2 | d3 e d2 c2 | B6 A2 | G2 E2 G2 BA | G4 F4 | E6 z2 | z8 | z8 | %19
w: longs to join im-|mor- tal|lays.|Hold me, O|Je- sus, in Thine|arms, And|cheer me with im- *|mor- tal|charms.|||
 z8 | z8 | z4 z2 d2 | d2 B2 B2 A2 | d2 g2 d2 B2 | c2 G2 d2 e2 | d4 c4 | B8 :| %27
w: ||||||||
V:2
 G4 D2 D2 | D2 E2 D2 D2 | D6 F2 | D2 G2 D2 E2 | D4 D4 | D6 D2 | D2 D2 E2 E2 | E2 D2 D2 F2 | %8
w: ||||||||
 G3 A G2 G2 | E4 (D2 E2) | D8 |: z8 | z8 | z4 z2 A2 | G2 E2 G2 GA | E4 F4 | G6 z2 | z8 | z4 z2 F2 | %19
w: ||||||||||For-|
 G2 D2 D2 C2 | D4 D4 | D6 F2 | G2 B2 G2 D2 | G2 D2 G2 G2 | c2 B2 B2 A2 | G4 F4 | G8 :| %27
w: ev- er to en-|joy Thy|love, Till|I a- wake in|realms a- bove, For-|ev- er to en-|joy Thy|love.|
V:3
 B4 G2 B2 | d2 c2 B2 A2 | B6 A2 | B2 d2 d2 c2 | B4 A4 | G6 A2 | B2 B2 G2 G2 | A2 A2 G2 D2 | %8
w: 2.~The king- dom|of my Lord is|come; This|day I've found my|Fath- er's|home; O|might I rove from|Him no more, Long|
 G3 A Bc d2 | e4 (d2 ^c2) | d8 |: z8 | z8 | z8 | z8 | z8 | z4 z2 G2 | B2 d2 d2 c2 | B2 d2 d2 c2 | %19
w: as I tread * this|mor- tal *|shore.||||||Till|I a- wake in|realms a- bove, *|
 B2 G2 d2 c2 | B4 A4 | G6 A2 | B2 d2 d2 c2 | B2 d2 g2 d2 | e2 d2 g2 c2 | B4 A4 | G8 :| %27
w: ||||||||
V:4
 G,4 G,2 G,2 | B,,2 C,2 D,2 D,2 | [G,,G,]6 D,2 | G,2 B,2 B,2 A,2 | G,4 D,4 | G,6 D,2 | %6
w: ||||||
 B,,2 B,,2 C,2 C,2 | A,,2 D,2 G,2 F,2 | G,3 D, G,2 B,2 | A,4 A,,4 | D,8 |: G,4 G,2 G,2 | %12
w: |||||Hold me, O|
 B,3 C B,2 A,2 | G,6 F,2 | E,2 E,2 E,2 E,2 | B,4 B,,4 | E,6 G,2 | G,2 G,2 G,2 D,2 | %18
w: Je- sus, in Thine|arms, And|cheer me with im-|mor- tal|charms. *||
 G,2 B,2 B,2 A,2 | G,2 B,2 B,2 A,2 | G,4 D,4 | G,6 D,2 | G,2 G,2 G,2 D,2 | G,2 G,2 G,2 G,2 | %24
w: ||||||
 C2 B,2 B,2 C2 | D4 D,4 | G,8 :| %27
w: |||

